X:217
T:Sunset, The
C:Cathal McConnell & Seamus Quinn
R:reel
D:Altan: Altan
Z:id:hn-reel-217
M:C|
K:D
cF~F2 c2dc|BG (3Bcd deed|=cdeg d2Ad|dfed ^cded|
cF~F2 c2dc|BG (3Bcd deed|=cdeg fde^c|1 dfec d2ed:|2 dfec d2ag||
|:fdfg a2gf|e=cef g3a|fg (3agf gfe^c|dfed ^cded|
cF~F2 c2dc|BG (3Bcd deed|=cdeg fde^c|1 dfec d2ag:|2 dfec d2ed||
